src/pos-icons/equalizer.svg

<svg height="24" viewBox="0 0 24 24" width="24" xmlns="http://www.w3.org/2000/svg"><path d="m10 20h4v-16h-4zm-6 0h4v-8h-4zm12-11v11h4v-11z"/></svg>

<?xml version="1.0" encoding="UTF-8"?><!DOCTYPE svg PUBLIC "-//W3C//DTD SVG 1.1//EN" "http://www.w3.org/Graphics/SVG/1.1/DTD/svg11.dtd"><svg xmlns="http://www.w3.org/2000/svg" xmlns:xlink="http://www.w3.org/1999/xlink" version="1.1" id="mdi-equalizer" width="24" height="24" viewBox="0 0 24 24"><path d="M10,20H14V4H10V20M4,20H8V12H4V20M16,9V20H20V9H16Z" /></svg>
